resources/haticons/SVG/phone_in_talk.svg

<!-- Generated by IcoMoon.io -->
<svg version="1.1" xmlns="http://www.w3.org/2000/svg" width="24" height="24" viewBox="0 0 24 24">
<title>phone_in_talk</title>
<path d="M15 12q0-1.219-0.891-2.109t-2.109-0.891v-2.016q2.063 0 3.539 1.477t1.477 3.539h-2.016zM18.984 12q0-2.906-2.039-4.945t-4.945-2.039v-2.016q3.75 0 6.375 2.625t2.625 6.375h-2.016zM20.016 15.516q0.422 0 0.703 0.281t0.281 0.703v3.516q0 0.422-0.281 0.703t-0.703 0.281q-7.031 0-12.023-4.992t-4.992-12.023q0-0.422 0.281-0.703t0.703-0.281h3.516q0.422 0 0.703 0.281t0.281 0.703v0.047q0 1.922 0.563 3.516 0.094 0.188 0.094 0.328 0 0.469-0.328 0.703l-2.203 2.203q0.938 1.781 2.883 3.727t3.727 2.883l2.203-2.203q0.328-0.328 0.703-0.328 0.141 0 0.328 0.094 1.688 0.563 3.563 0.563z"></path>
</svg>

<svg xmlns="http://www.w3.org/2000/svg" width="24" height="24"><path d="M15 12q0-1.219-.891-2.109T12 9V6.984q2.063 0 3.539 1.477T17.016 12H15zm3.984 0q0-2.906-2.039-4.945T12 5.016V3q3.75 0 6.375 2.625T21 12h-2.016zm1.032 3.516q.422 0 .703.281T21 16.5v3.516q0 .422-.281.703t-.703.281q-7.031 0-12.023-4.992T3.001 3.985q0-.422.281-.703t.703-.281h3.516q.422 0 .703.281t.281.703v.047q0 1.922.563 3.516.094.188.094.328 0 .469-.328.703l-2.203 2.203q.938 1.781 2.883 3.727t3.727 2.883l2.203-2.203q.328-.328.703-.328.141 0 .328.094 1.688.563 3.563.563z"/></svg>
